**kern	**kern	**dynam
*part1	*part1	*part1
*staff2	*staff1	*
*I"Piano	*	*
*clefF4	*clefG2	*
*k[f#c#g#d#]	*k[f#c#g#d#]	*
*M6/8	*M6/8	*
=1	=1	=1
8r	8ee	.
=	=	=
2.r	(4gg#	.
.	8aa)	.
.	(4aa	.
.	8bb)	.
=	=	=
2.r	(4.bb	.
.	4gg#)	.
.	8bb	.
=	=	=
2.r	(8bbL	.
.	8aa	.
.	8gg#J)	.
.	4aa	.
.	8bb	.
=	=	=
2.r	[4.gg#	.
.	8gg#]	.
.	(8eeL	f
.	8gg#J)	.
=	=	=
(8G#L	[4.bb	.
8B	.	.
8eJ)	.	.
(8G#L	8bbL]	.
8B	(8ccc#	.
8eJ)	8bbJ)	.
=	=	=
(8AL	(4.aa	.
8c#	.	.
8f#J)	.	.
(8AL	4.ff#)	.
8c#	.	.
8f#J)	.	.
*clefG2	*	*
=	=	=
(8BL	(4ee	.
8e	.	.
.	32qqff#/LLL	.
.	32qqee/	.
.	32qqdd#/	.
.	32qqee/JJJ	.
8g#J)	8gg#)	.
(8BL	(4ff#	.
8d#	.	.
8aJ)	8bb`)	.
=	=	=
*-	*-	*-
!!!system-decoration: {(s1,s2)}
